dist/images/services-icons/day.svg

<svg width="48" height="48" viewBox="0 0 48 48" fill="none" xmlns="http://www.w3.org/2000/svg">
<circle cx="24" cy="24" r="23.5" fill="#FCFAF7" stroke="#BDA37E"/>
<path fill-rule="evenodd" clip-rule="evenodd" d="M19.0875 14.4927C18.1061 13.5107 16.5144 13.5102 15.5322 14.4915L15.0628 14.9605C14.17 14.7067 13.1711 14.9338 12.4681 15.6415C11.4308 16.6859 11.4308 18.3809 12.4681 19.4253L13.0234 19.9844V27.0892H11.0234V28.4225H12.3904C11.9583 28.8461 11.6901 29.4363 11.6901 30.0892C11.6901 31.3779 12.7348 32.4225 14.0234 32.4225C15.3121 32.4225 16.3568 31.3779 16.3568 30.0892C16.3568 29.4363 16.0886 28.8461 15.6564 28.4225H33.0571C32.6249 28.8461 32.3568 29.4363 32.3568 30.0892C32.3568 31.3779 33.4014 32.4225 34.6901 32.4225C35.9788 32.4225 37.0234 31.3779 37.0234 30.0892C37.0234 29.4363 36.7553 28.8461 36.3231 28.4225H37.6901V27.0892H35.0234V25.0141C36.1713 24.7323 37.0234 23.6887 37.0234 22.4445C37.0234 20.9841 35.8493 19.8001 34.4009 19.8001H20.4301C20.3758 19.8001 20.3236 19.7783 20.2851 19.7396L20.0408 19.4937L20.2864 19.2483C21.2686 18.267 21.2692 16.6754 20.2876 15.6934L19.0875 14.4927ZM19.1012 18.5477L19.344 18.3051C19.8052 17.8443 19.8055 17.0971 19.3446 16.636L18.1445 15.4353C17.6836 14.9741 16.9359 14.9738 16.4746 15.4347L16.241 15.6681L19.1012 18.5477ZM35.6901 22.4445C35.6901 21.7099 35.1024 21.1335 34.4009 21.1335H20.4301C20.0189 21.1335 19.6268 20.9688 19.3392 20.6793L15.2686 16.5812C14.755 16.0641 13.9277 16.0641 13.4141 16.5812C12.8932 17.1056 12.8932 17.9613 13.4141 18.4857L18.6487 23.7557H34.4009C35.1025 23.7557 35.6901 23.1791 35.6901 22.4445ZM17.8736 24.8673C18.0146 25.0093 18.2056 25.089 18.4049 25.089H33.6901V27.0892H14.3568V21.3267L17.8736 24.8673ZM15.0234 30.0892C15.0234 30.6415 14.5757 31.0892 14.0234 31.0892C13.4712 31.0892 13.0234 30.6415 13.0234 30.0892C13.0234 29.5369 13.4712 29.0892 14.0234 29.0892C14.5757 29.0892 15.0234 29.5369 15.0234 30.0892ZM34.6901 31.0892C35.2424 31.0892 35.6901 30.6415 35.6901 30.0892C35.6901 29.5369 35.2424 29.0892 34.6901 29.0892C34.1378 29.0892 33.6901 29.5369 33.6901 30.0892C33.6901 30.6415 34.1378 31.0892 34.6901 31.0892Z" fill="#BDA37E"/>
</svg>

<svg width="48" height="48" fill="none" xmlns="http://www.w3.org/2000/svg"><circle cx="24" cy="24" r="23.5" fill="#FCFAF7" stroke="#BDA37E"/><path fill-rule="evenodd" clip-rule="evenodd" d="M19.087 14.493a2.514 2.514 0 00-3.555-.002l-.47.47a2.635 2.635 0 00-2.594.68 2.69 2.69 0 000 3.784l.555.56v7.104h-2v1.334h1.367a2.333 2.333 0 103.266 0h17.401a2.333 2.333 0 103.266 0h1.367v-1.334h-2.667v-2.075a2.641 2.641 0 002-2.57 2.634 2.634 0 00-2.622-2.644H20.43a.205.205 0 01-.146-.06l-.244-.246.245-.246a2.513 2.513 0 00.002-3.555l-1.2-1.2zm.014 4.055l.243-.243a1.18 1.18 0 000-1.669l-1.2-1.2a1.18 1.18 0 00-1.67-.001l-.233.233 2.86 2.88zm16.59 3.897a1.3 1.3 0 00-1.29-1.311H20.43c-.412 0-.804-.165-1.092-.455l-4.07-4.098a1.302 1.302 0 00-1.855 0c-.52.525-.52 1.38 0 1.905l5.235 5.27H34.4a1.3 1.3 0 001.29-1.311zm-17.817 2.422a.749.749 0 00.53.222H33.69v2H14.357v-5.762l3.517 3.54zm-2.85 5.222a1 1 0 11-2 0 1 1 0 012 0zm19.666 1a1 1 0 100-2 1 1 0 000 2z" fill="#BDA37E"/></svg>
